X: 4
T:An dro
M:4/4
L:1/4
Q:1/4=80
S:Jean-Michel Veillon
R:An dro
N:Posted to woodenflute 28/10/2000
Z:Steve Mansfield
K:G
BB/c/ BB/G/ | AA/G/ F/G/F/E/ | BB/c/ BB/G/|1 AG/A/ FE :|2 AG/A/F>G|
|:E F/G/ A A/B/| A G/A/ B/c/B/G/ | E F/G/ A B/A/ | G E/A/ A/G/F/G/|
E F/G/ A A/B/ | A G/A/ B/c/B/G/ | E F/G/ A B/A/ | G/E/F/D/ EE:|
<end>
<start>
